!!!!SEGMENT:13Icchoiri_c.krn
!!!OTL:一丁入
!!!OPR:Eiga Banso Kyokusyu,jidai-geki,zenpen
!!!YOY:1929
!!!ONB:Kakutou
**kern
*clefG2
*C:
*M2/4
8r
16BLL
16f#JJ
=1
8f#L
8f#
8f#
8f#J
=2
8f#L
8f#J
8gL
8f#J
=3
8gL
8f#J
16eKL
8e
16cJk
=4||
*M3/8
8B
8BL
8bJ
=5||
*M3/4
8BL
8B
8B
8BJ
8BL
8BJ
=6||
*M2/4
8BL
8bJ
8BL
8BJ
=7||
*M3/4
16eKL
8e
16dJk
8eL
8eJ
4r
=8||
*M2/4
8BL
8BJ
8bL
8gJ
=9
8f#L
8e
8cJ
8r
=10
8cL
8eJ
8f#L
8eJ
=11
16f#LL
16f#
16B
16eJJ
8f#
8r
=12
16eeLL
16ee
16b
16eeJJ
8ff#L
8ggJ
=13
16eeLL
16ee
16ff#
16eeJJ
8ccL
8bJ
=14
8eL
16ddL
16ddJJ
16eLL
16dd
16e
16ddJJ
=15
8eL
8eeJ
==
*-
!!!ENC: Yukiko Yoden
!!!END: 2023/06/11
